static/img/kroki/06e1a48673ed9011c01af43c5404f349.svg

<?xml version="1.0" encoding="us-ascii" standalone="no"?><svg xmlns="http://www.w3.org/2000/svg" xmlns:xlink="http://www.w3.org/1999/xlink" contentStyleType="text/css" height="374px" preserveAspectRatio="none" style="width:272px;height:374px;" version="1.1" viewBox="0 0 272 374" width="272px" zoomAndPan="magnify"><defs/><g><!--class aws_rds_cluster_snapshot--><g id="elem_aws_rds_cluster_snapshot"><rect codeLine="23" fill="#3D176E" height="39.7891" id="aws_rds_cluster_snapshot" rx="2.5" ry="2.5" style="stroke:#000D19;stroke-width:0.5;" width="258" x="7" y="328.58"/><ellipse cx="22" cy="348.4745" fill="#ADD1B2" rx="11" ry="11" style="stroke:#181818;stroke-width:1.0;"/><path d="M24.9688,354.1152 Q24.3906,354.412 23.75,354.5527 Q23.1094,354.7089 22.4063,354.7089 Q19.9063,354.7089 18.5781,353.0683 Q17.2656,351.412 17.2656,348.287 Q17.2656,345.162 18.5781,343.5058 Q19.9063,341.8495 22.4063,341.8495 Q23.1094,341.8495 23.75,342.0058 Q24.4063,342.162 24.9688,342.4589 L24.9688,345.1777 Q24.3438,344.5995 23.75,344.3339 Q23.1563,344.0527 22.5313,344.0527 Q21.1875,344.0527 20.5,345.1308 Q19.8125,346.1933 19.8125,348.287 Q19.8125,350.3808 20.5,351.4589 Q21.1875,352.5214 22.5313,352.5214 Q23.1563,352.5214 23.75,352.2558 Q24.3438,351.9745 24.9688,351.3964 L24.9688,354.1152 Z " fill="#000000"/><text fill="#D9B8FF" font-family="Helvetica" font-size="17" lengthAdjust="spacing" textLength="216" x="41" y="354.3598">aws_rds_cluster_snapshot</text></g><!--class aws_resource--><g id="elem_aws_resource"><rect codeLine="26" fill="#3D176E" height="39.7891" id="aws_resource" rx="2.5" ry="2.5" style="stroke:#000D19;stroke-width:0.5;" width="155" x="58.5" y="167.79"/><ellipse cx="73.5" cy="187.6845" fill="#ADD1B2" rx="11" ry="11" style="stroke:#181818;stroke-width:1.0;"/><path d="M76.4688,193.3252 Q75.8906,193.622 75.25,193.7627 Q74.6094,193.9189 73.9063,193.9189 Q71.4063,193.9189 70.0781,192.2783 Q68.7656,190.622 68.7656,187.497 Q68.7656,184.372 70.0781,182.7158 Q71.4063,181.0595 73.9063,181.0595 Q74.6094,181.0595 75.25,181.2158 Q75.9063,181.372 76.4688,181.6689 L76.4688,184.3877 Q75.8438,183.8095 75.25,183.5439 Q74.6563,183.2627 74.0313,183.2627 Q72.6875,183.2627 72,184.3408 Q71.3125,185.4033 71.3125,187.497 Q71.3125,189.5908 72,190.6689 Q72.6875,191.7314 74.0313,191.7314 Q74.6563,191.7314 75.25,191.4658 Q75.8438,191.1845 76.4688,190.6064 L76.4688,193.3252 Z " fill="#000000"/><text fill="#D9B8FF" font-family="Helvetica" font-size="17" lengthAdjust="spacing" textLength="113" x="92.5" y="193.5698">aws_resource</text></g><!--class resource--><g id="elem_resource"><rect codeLine="29" fill="#3D176E" height="39.7891" id="resource" rx="2.5" ry="2.5" style="stroke:#000D19;stroke-width:0.5;" width="113" x="79.5" y="7"/><ellipse cx="94.5" cy="26.8945" fill="#ADD1B2" rx="11" ry="11" style="stroke:#181818;stroke-width:1.0;"/><path d="M97.4688,32.5352 Q96.8906,32.832 96.25,32.9727 Q95.6094,33.1289 94.9063,33.1289 Q92.4063,33.1289 91.0781,31.4883 Q89.7656,29.832 89.7656,26.707 Q89.7656,23.582 91.0781,21.9258 Q92.4063,20.2695 94.9063,20.2695 Q95.6094,20.2695 96.25,20.4258 Q96.9063,20.582 97.4688,20.8789 L97.4688,23.5977 Q96.8438,23.0195 96.25,22.7539 Q95.6563,22.4727 95.0313,22.4727 Q93.6875,22.4727 93,23.5508 Q92.3125,24.6133 92.3125,26.707 Q92.3125,28.8008 93,29.8789 Q93.6875,30.9414 95.0313,30.9414 Q95.6563,30.9414 96.25,30.6758 Q96.8438,30.3945 97.4688,29.8164 L97.4688,32.5352 Z " fill="#000000"/><text fill="#D9B8FF" font-family="Helvetica" font-size="17" lengthAdjust="spacing" textLength="71" x="113.5" y="32.7798">resource</text></g><!--reverse link aws_resource to aws_rds_cluster_snapshot--><g id="link_aws_resource_aws_rds_cluster_snapshot"><path codeLine="32" d="M136,225.84 C136,256.36 136,297.69 136,328.25 " fill="none" id="aws_resource-backto-aws_rds_cluster_snapshot" style="stroke:#FFAF37;stroke-width:2.0;"/><polygon fill="none" points="136,207.84,130,225.84,142,225.84,136,207.84" style="stroke:#FFAF37;stroke-width:2.0;"/></g><!--reverse link resource to aws_resource--><g id="link_resource_aws_resource"><path codeLine="33" d="M136,65.05 C136,95.57 136,136.9 136,167.46 " fill="none" id="resource-backto-aws_resource" style="stroke:#FFAF37;stroke-width:2.0;"/><polygon fill="none" points="136,47.05,130,65.05,142,65.05,136,47.05" style="stroke:#FFAF37;stroke-width:2.0;"/></g><!--SRC=[XT1DRuCm30RWExyYKiz8i6fhA-tI8atRfPhMtP4XJec01DbXLVVntpVMRWhGZwlzn7wTGaiKM3TkBsgiCoGEkDIc0O9QB8diBh6L9J5H2jHqDcm-MEEkWZNKA1wnUaEdSnYArqBdfK5cSUErLf2NMxAjaOVnZi3mJmkDyrHI0VFIET9Pwz0B8nVPNAcX70wTJ6KykyCHioIHZYIA8XalXkJggejt_ukDVaSH-v-sjWv7CKShVjN5b9tmGeuE_UkVpVWCKcgp5RTUxUMGYGnIhxufGDfTfnLKxAzXXuJMxHjCHbVXOYxLx2H-EeU3lFiw0JjEINAQLsttA6K33HVMYOyW-F8DicqfHx_Uh_NK_MSOXcU71wVSiHHy0m00]--></g></svg>

<svg xmlns="http://www.w3.org/2000/svg" width="272" height="374" viewBox="0 0 272 374"><rect width="258" height="39.789" x="7" y="328.58" fill="#3D176E" rx="2.5" ry="2.5" style="stroke:#000d19;stroke-width:.5"/><circle cx="22" cy="348.474" r="11" fill="#ADD1B2" style="stroke:#181818;stroke-width:1"/><path d="M24.969 354.115q-.578.297-1.219.438-.64.156-1.344.156-2.5 0-3.828-1.64-1.312-1.657-1.312-4.782t1.312-4.781q1.328-1.656 3.828-1.656.703 0 1.344.156.656.156 1.219.453v2.719q-.625-.579-1.219-.844-.594-.281-1.219-.281-1.343 0-2.031 1.078-.687 1.062-.687 3.156t.687 3.172q.688 1.062 2.031 1.062.625 0 1.219-.265.594-.281 1.219-.86z"/><text x="41" y="354.36" fill="#D9B8FF" font-family="Helvetica" font-size="17" textLength="216">aws_rds_cluster_snapshot</text><rect width="155" height="39.789" x="58.5" y="167.79" fill="#3D176E" rx="2.5" ry="2.5" style="stroke:#000d19;stroke-width:.5"/><circle cx="73.5" cy="187.685" r="11" fill="#ADD1B2" style="stroke:#181818;stroke-width:1"/><path d="M76.469 193.325q-.578.297-1.219.438-.64.156-1.344.156-2.5 0-3.828-1.64-1.312-1.657-1.312-4.782t1.312-4.781q1.328-1.656 3.828-1.656.703 0 1.344.156.656.156 1.219.453v2.719q-.625-.578-1.219-.844-.594-.281-1.219-.281-1.344 0-2.031 1.078-.687 1.062-.687 3.156t.687 3.172q.688 1.062 2.031 1.062.625 0 1.219-.265.594-.281 1.219-.86z"/><text x="92.5" y="193.57" fill="#D9B8FF" font-family="Helvetica" font-size="17" textLength="113">aws_resource</text><rect width="113" height="39.789" x="79.5" y="7" fill="#3D176E" rx="2.5" ry="2.5" style="stroke:#000d19;stroke-width:.5"/><circle cx="94.5" cy="26.895" r="11" fill="#ADD1B2" style="stroke:#181818;stroke-width:1"/><path d="M97.469 32.535q-.578.297-1.219.438-.64.156-1.344.156-2.5 0-3.828-1.64-1.312-1.657-1.312-4.782t1.312-4.781q1.328-1.656 3.828-1.656.703 0 1.344.156.656.156 1.219.453v2.719q-.625-.578-1.219-.844-.594-.281-1.219-.281-1.344 0-2.031 1.078-.687 1.062-.687 3.156T93 29.879q.688 1.062 2.031 1.062.625 0 1.219-.265.594-.281 1.219-.86z"/><text x="113.5" y="32.78" fill="#D9B8FF" font-family="Helvetica" font-size="17" textLength="71">resource</text><path fill="none" d="M136 225.84v102.41m0-120.41-6 18h12zm0-142.79v102.41m0-120.41-6 18h12z" style="stroke:#ffaf37;stroke-width:2"/></svg>
